X:164
T:Concerto in G for Viola - Largo
C:Telemann, G.P.
M:4/4
L:1/8
Q:1/4=52
K:G
|:B2|e4 de f2|g2 fe d2 c2|B4 cd e2|f2 ef g2 a2|
b4 ag f2|e2 fe d2 c2|d4 cd e2|g4 g2:|

